X:1
T:Danville
T:D minor            Jeremiah Ingalls, 1805
T:Isaac Watts, 1717 (Psalm 112, Part 1)              88. 88. 88.
T:Transcribed from Ingalls' Christian Harmony, 1805; Counter by B, C, Johnston, 2019.
%%score [ 1 2 3 4 ]
L:1/8
Q:1/4=150
M:4/4
K:F
V:1 treble nm="Tr." snm="Tr."
V:2 treble nm="C." snm="C."
V:3 treble-8 nm="T." snm="T."
V:4 bass nm="B." snm="B."
V:1
"_2. Be–set ____ with   threat–ening   dan     –    gers  round, Unmoved shall he maintain his ground;                                               His  conscience  holds  his courage  up:  ___  The""_1. Ill    ti    –    dings   ne     –    ver   can ______ sur–prise  The heart that fixed on God    re – lies,                                              Though waves and tempests roar around: ___  Safe" A8 | %1
 (A2 F2 G2) B2 | (A2 G2 A2) B2 | (c2 AB c2) d2 | c6 d2 | A2 A2 A2 c2 | (B4 A2) A2 | A6 z2 | z8 | %9
 z4 z2 A2 | d2 d2 e2 d2 | (A4 F2) A2 | (A4 G2) F2 | %13
"_2. soul that's filled with virtue's light,           Shines brightest in affliction's night,   And   sees  in  darkness  beams of hope.""_1. on the rock he sits,          and   sees          The shipwreck of his en – e   – mies,    And  all  their hope  and glory drowned." A2 A2 A2 A2 | %14
 A6 A2 | d6 D2 | A2 A2 A2 G2 | F4 D4 | A6 d2 | f2 f2 c2 A2 | B4 A4 | A8 |] %22
V:2
 A8 | (A2 F2 D2) F2 | (F2 G2 A2) G2 | (A2 B2 A2) F2 | E6 F2 | D2 DE F2 A2 | (B4 A2) c2 | d6 z2 | %8
 z8 | z8 | %10
 z4 z2"_1. Though waves and tempests roar a–""_2. His conscience holds his cou –  rage" A2 | %11
 F2 D2 F2 F2 | (A4 G2) A2 | %13
"_1. –round:   Safe on the rock he sits, and sees      The shipwreck of his e – ne – mies,   And  all their hope and glory drowned.""_2.  up:    The soul that's filled with virtue's light   Shines brightest in affliction's night, And sees in darkness beams  of  hope." A6 E2 | %14
 D2 F2 A2 d2 | A2 F2 D4 | F2 F2 A4 | F2 A2 c2 B2 | A6 A2 | F2 D2 E2 F2 | B4 A4 | A8 |] %22
V:3
"_1. Ill    ti    –    dings   ne     –    ver   can ______ sur–prise  The heart that fixed on God   re – lies,                        Though waves and tempests roar around:    Safe on the rock he""_2. Be–set ____ with   threatening     dan    –    gers  round, Unmoved shall he maintain his ground;                        His  conscience  holds his courage up:  The soul that's filled with" A8 | %1
 (d2 c2 d2) f2 | (e2 d2 c2) d2 | (e2 f2 e2) d2 | e6 f2 | d2 d2 c2 A2 | (d4 e2) c2 | d6 z2 | %8
 z4 z2 A2 | d2 d2 e2 d2 | (A4 G2) F2 | A6 f2 | d2 d2 d2 f2 | %13
"_1. sits, ___ and  sees           The shipwreck of his e   –   ne    –   mies,                          And all their hope and glory drowned.""_2. vir    –    tue's  light,       Shines brightest  in  af–flic–tion's    night,                         And  sees  in  darkness beams of hope." (d4 c2) e2 | %14
 d6 D2 | A2 A2 A2 G2 | F4 D4 | A6 z2 | z4 z2 A2 | d2 d2 e2 f2 | d4 ^c4 | d8 |] %22
V:4
 D,8 | (D,2 A,2 G,2) F,2 | (A,2 B,2 A,2) G,2 | (A,2 D2 A,2) D,2 | A,6 A,2 | D,2 D,E, F,2 A,2 | %6
 (D4 A,2) A,2 | %7
 D,6"_1. Though waves and tempests roar a – round:   Safe on the rock he  sits, ____ and""_2.  His  conscience  holds  his  courage  up:      The soul that's filled with vir – tue's" D,2 | %8
 A,2 A,2 B,2 A,2 | (G,4 A,2) A,,2 | D,6 F,2 | D,2 D,2 D,2 A,,2 | (D,4 G,2) A,2 | %13
"_1. sees ____  The shipwreck of his e   –   ne  –   mies, ________________________   And all their hope and glory drowned.""_2. light, ___    hines  brightest in  af–flic–tion's  night, ________________________  And  sees  in  darkness beams of hope." (D,4 F,2) E,2 | %14
 D,2 D,2 D,2 F,2 | D,4 A,,4 | D,8- | D,8- | D,6 D,2 | D2 D2 A,2 F,2 | G,4 A,4 | D,8 |] %22

